X:4178
T:Michael Cramer's
O:england
M:4/4
L:1/8
S:Conal O'Graide ( Top O'Coom Album)
K:D
|A3 b AFDF|AFAd f2 fg|afdf eB B2|dBBA FEDF|
A3 b AFD2|AFAd f2 fg|afdf eBB2|Adfe d2 dB:|
|f2 ed BAFA|dcdf a 3f|g2 fg edBc|dBAF EFDF|
A2 AB AF D2|AFAd f3 g|afdf eBB2|Adfe d3 e:|
